microsoft-xbox-controller-menu.svg

<svg fill="currentColor" viewBox="0 0 24 24"><path d="M12 2A10 10 0 0 0 2 12a10 10 0 0 0 10 10 10 10 0 0 0 10-10A10 10 0 0 0 12 2M6 7h12v2H6zm0 4h12v2H6zm0 4h12v2H6z"/></svg>

<svg  viewBox="0 0 24 24" fill="currentColor"><path  d="M12,2A10,10 0 0,0 2,12A10,10 0 0,0 12,22A10,10 0 0,0 22,12A10,10 0 0,0 12,2M6,7H18V9H6V7M6,11H18V13H6V11M6,15H18V17H6V15Z"/></svg>
